svgs/sharp-solid/microphone-lines-slash.svg

<svg xmlns="http://www.w3.org/2000/svg" viewBox="0 0 640 512"><!--! Font Awesome Pro 6.6.0 by @fontawesome - https://fontawesome.com License - https://fontawesome.com/license (Commercial License) Copyright 2024 Fonticons, Inc. --><path d="M416 0L224 0l0 151.1L48.4 14.8 29.4 .1 0 38l19 14.7L591.5 497.2l19 14.7L639.9 474l-19-14.7L472.4 344c15-25.9 23.6-56 23.6-88l0-40 0-24-48 0 0 24 0 8 0 32c0 21-5 40.7-14 58.2l-18-14 0-44.2-56.9 0L320 225.7l0-1.7 16 0 80 0 0-32-80 0-16 0 0-32 16 0 80 0 0-32-80 0-16 0 0-32 16 0 80 0 0-96zM401.3 412.2l-43.1-33.9C346.1 382 333.3 384 320 384c-70.7 0-128-57.3-128-128l0-8.7-48-37.8 0 6.5 0 40c0 89.1 66.2 162.7 152 174.4l0 33.6-48 0-24 0 0 48 24 0 72 0 72 0 24 0 0-48-24 0-48 0 0-33.6c20.4-2.8 39.7-9.1 57.3-18.2z"/></svg>

<svg xmlns="http://www.w3.org/2000/svg" viewBox="0 0 640 512"><!--! Font Awesome Pro 6.4.0 by @fontawesome - https://fontawesome.com License - https://fontawesome.com/license (Commercial License) Copyright 2023 Fonticons, Inc. --><path d="M416 0H224V151.1L48.4 14.8 29.4 .1 0 38 19 52.7 591.5 497.2l19 14.7L639.9 474l-19-14.7L472.4 344c15-25.9 23.6-56 23.6-88V216 192H448v24 8 32c0 21-5 40.7-14 58.2l-18-14V256H359.1L320 225.7V224h16 80V192H336 320V160h16 80V128H336 320V96h16 80V0zM401.3 412.2l-43.1-33.9C346.1 382 333.3 384 320 384c-70.7 0-128-57.3-128-128v-8.7l-48-37.8V216v40c0 89.1 66.2 162.7 152 174.4V464H248 224v48h24 72 72 24V464H392 344V430.4c20.4-2.8 39.7-9.1 57.3-18.2z"/></svg>
